icons/chat-new-line.svg

<svg viewBox="0 0 24 24" fill="currentColor" xmlns="http://www.w3.org/2000/svg"><path d="M14 3V5H4V18.3851L5.76282 17H20V10H22V18C22 18.5523 21.5523 19 21 19H6.45455L2 22.5V4C2 3.44772 2.44772 3 3 3H14ZM19 3V0H21V3H24V5H21V8H19V5H16V3H19Z"/></svg>

<svg xmlns="http://www.w3.org/2000/svg" viewBox="0 0 24 24">
    <g>
        <path fill="none" d="M0 0h24v24H0z"/>
        <path d="M14 3v2H4v13.385L5.763 17H20v-7h2v8a1 1 0 0 1-1 1H6.455L2 22.5V4a1 1 0 0 1 1-1h11zm5 0V0h2v3h3v2h-3v3h-2V5h-3V3h3z"/>
    </g>
</svg>
